modules/themify-icons/icons/direction.svg

<?xml version="1.0" encoding="utf-8"?>
<!-- Generated by IcoMoon.io -->
<!DOCTYPE svg PUBLIC "-//W3C//DTD SVG 1.1//EN" "http://www.w3.org/Graphics/SVG/1.1/DTD/svg11.dtd">
<svg version="1.1" xmlns="http://www.w3.org/2000/svg" xmlns:xlink="http://www.w3.org/1999/xlink" width="17" height="17" viewBox="0 0 17 17">
<g>
</g>
	<path d="M16.641 5.409l-2.811-3.409h-4.83v-2h-1v2h-7v7h7v8h1v-8h4.838l2.803-3.591zM9 8h-7v-5h11.358l2.001 2.426-2.009 2.574h-4.35z" fill="#000000" />
</svg>

<svg xmlns="http://www.w3.org/2000/svg" width="17" height="17"><path d="M16.641 5.409L13.83 2H9V0H8v2H1v7h7v8h1V9h4.838l2.803-3.591zM9 8H2V3h11.358l2.001 2.426L13.35 8H9z"/></svg>
